icons/stack-24.svg

<svg width="24" height="24" viewBox="0 0 24 24" fill="none" xmlns="http://www.w3.org/2000/svg">
<path fill-rule="evenodd" clip-rule="evenodd" d="M11.0629 1.45624C11.635 1.09342 12.3652 1.09342 12.9373 1.45624L21.32 6.77212C22.4038 7.45936 22.4038 9.04065 21.32 9.7279L12.9373 15.0438C12.3652 15.4066 11.635 15.4066 11.0629 15.0438L2.68016 9.7279C1.59643 9.04065 1.59643 7.45936 2.68016 6.77212L11.0629 1.45624ZM12.134 2.723C12.0522 2.67117 11.9479 2.67117 11.8662 2.723L3.48348 8.03888C3.32866 8.13706 3.32866 8.36296 3.48348 8.46113L11.8662 13.777C11.9479 13.8288 12.0522 13.8288 12.134 13.777L20.5167 8.46113C20.6715 8.36296 20.6715 8.13706 20.5167 8.03888L12.134 2.723Z" fill="black"/>
<path fill-rule="evenodd" clip-rule="evenodd" d="M1.86671 12.324C2.08854 11.9742 2.55195 11.8704 2.90175 12.0922L11.8662 17.777C11.9479 17.8288 12.0522 17.8288 12.134 17.777L21.0984 12.0922C21.4482 11.8704 21.9116 11.9742 22.1335 12.324C22.3553 12.6738 22.2516 13.1372 21.9018 13.359L12.9373 19.0438C12.3652 19.4066 11.635 19.4066 11.0629 19.0438L2.09844 13.359C1.74863 13.1372 1.64489 12.6738 1.86671 12.324Z" fill="black"/>
<path fill-rule="evenodd" clip-rule="evenodd" d="M1.86671 16.324C2.08854 15.9742 2.55195 15.8704 2.90175 16.0922L11.8662 21.777C11.9479 21.8288 12.0522 21.8288 12.134 21.777L21.0984 16.0922C21.4482 15.8704 21.9116 15.9742 22.1335 16.324C22.3553 16.6738 22.2516 17.1372 21.9018 17.359L12.9373 23.0438C12.3652 23.4066 11.635 23.4066 11.0629 23.0438L2.09844 17.359C1.74863 17.1372 1.64489 16.6738 1.86671 16.324Z" fill="black"/>
</svg>

<svg xmlns="http://www.w3.org/2000/svg" width="24" height="24" viewBox="0 0 24 24"><path fill-rule="evenodd" d="M11.063 1.456a1.75 1.75 0 011.874 0l8.383 5.316a1.75 1.75 0 010 2.956l-8.383 5.316a1.75 1.75 0 01-1.874 0L2.68 9.728a1.75 1.75 0 010-2.956l8.383-5.316zm1.071 1.267a.25.25 0 00-.268 0L3.483 8.039a.25.25 0 000 .422l8.383 5.316a.25.25 0 00.268 0l8.383-5.316a.25.25 0 000-.422l-8.383-5.316z"/><path fill-rule="evenodd" d="M1.867 12.324a.75.75 0 011.035-.232l8.964 5.685a.25.25 0 00.268 0l8.964-5.685a.75.75 0 01.804 1.267l-8.965 5.685a1.75 1.75 0 01-1.874 0l-8.965-5.685a.75.75 0 01-.231-1.035z"/><path fill-rule="evenodd" d="M1.867 16.324a.75.75 0 011.035-.232l8.964 5.685a.25.25 0 00.268 0l8.964-5.685a.75.75 0 01.804 1.267l-8.965 5.685a1.75 1.75 0 01-1.874 0l-8.965-5.685a.75.75 0 01-.231-1.035z"/></svg>
